X: 12
T: Farewell To Ireland
Z: McMij
S: https://thesession.org/tunes/33#setting31982
R: reel
M: 4/4
L: 1/8
K: Ador
G|A3 c e3 f|gedB GBdB|A3 c e3 f|gedf eAAG|
A3 c e3 f|gedB d2 g2|edeg a2 ba|gedB BA A2:|
K:AMix
a2 ag agef|g2 ga gede|a2 ag agef|gedB BA A2|
agef gage|d2 dB GABd|cAeA Bdef|gedB BA A2:|
eABA eABA|d2 dB GABd|eABA eAAa|gedB BA A2|
eABA eABA|d2 dB GABd|c2 BA Bdef|gedB BA A2:|
aece aece|gdBd gdBd|aece a2 af|gedB BA A2|
agef g2 ge|dedB GA B2|cAeA d2 ef|gedB BA A2:|

